packages/common/src/icons/cog.svg

<svg width="1em" height="1em" viewBox="0 0 40 40" xmlns="http://www.w3.org/2000/svg">
<path fill-rule="evenodd" clip-rule="evenodd" d="M33.125 33.125C35 31.25 35 27.5 35 20C35 12.5 35 8.75 33.125 6.875C31.25 5 27.5 5 20 5C12.5 5 8.75 5 6.875 6.875C5 8.75 5 12.5 5 20C5 27.5 5 31.25 6.875 33.125C8.75 35 12.5 35 20 35C27.5 35 31.25 35 33.125 33.125ZM28.9461 20.9136C28.928 21.0869 28.9975 21.2584 29.134 21.3667L31.4449 23.1998C31.6728 23.3823 31.7327 23.7108 31.5888 23.9785L29.19 28.1882C29.0461 28.4558 28.7342 28.5653 28.4584 28.4558L25.7362 27.3468C25.5724 27.2801 25.3861 27.3056 25.2427 27.4092C24.7607 27.7573 24.2502 28.0671 23.7061 28.3172C23.5455 28.391 23.4297 28.5388 23.405 28.7138L22.9891 31.6557C22.9532 31.9477 22.7013 32.1667 22.4014 32.1667H17.6039C17.304 32.1667 17.0521 31.9477 17.0162 31.6557L16.6003 28.7138C16.5756 28.5388 16.4598 28.391 16.2991 28.3176C15.7556 28.0696 15.2457 27.7665 14.7642 27.4138C14.6198 27.308 14.4312 27.2808 14.2654 27.3484L11.5469 28.4558C11.283 28.5532 10.9592 28.4558 10.8153 28.1882L8.41649 23.9785C8.27256 23.7108 8.33253 23.3823 8.56042 23.1998L10.8713 21.3667C11.0078 21.2584 11.0774 21.0869 11.0594 20.9136C11.0281 20.6126 11.0072 20.3063 11.0072 20C11.0072 19.6937 11.0281 19.3874 11.0594 19.0865C11.0774 18.9131 11.0078 18.7416 10.8713 18.6333L8.56042 16.8002C8.33253 16.6177 8.26057 16.2892 8.41649 16.0215L10.8153 11.8118C10.9592 11.5442 11.2711 11.4347 11.5469 11.5442L14.2691 12.6532C14.4329 12.7199 14.6192 12.6944 14.7626 12.5909C15.2446 12.2427 15.7551 11.9329 16.2992 11.6828C16.4598 11.609 16.5756 11.4612 16.6003 11.2862L17.0162 8.34434C17.0521 8.05234 17.304 7.83334 17.6039 7.83334H22.4014C22.7013 7.83334 22.9532 8.05234 22.9891 8.34434L23.405 11.2862C23.4297 11.4612 23.5455 11.6091 23.7062 11.6824C24.2497 11.9304 24.7596 12.2335 25.2411 12.5863C25.3855 12.6921 25.5741 12.7192 25.7399 12.6516L28.4584 11.5442C28.7223 11.4468 29.0461 11.5442 29.19 11.8118L31.5888 16.0215C31.7327 16.2892 31.6728 16.6177 31.4449 16.8002L29.134 18.6333C28.9975 18.7416 28.928 18.9131 28.9461 19.0864C28.9772 19.384 28.9981 19.685 28.9981 20C28.9981 20.3151 28.9772 20.616 28.9461 20.9136ZM15.8048 20C15.8048 22.3482 17.6878 24.2583 20.0027 24.2583C22.3175 24.2583 24.2005 22.3482 24.2005 20C24.2005 17.6518 22.3175 15.7417 20.0027 15.7417C17.6878 15.7417 15.8048 17.6518 15.8048 20Z" fill="currentColor"/>
</svg>

<svg width="1em" height="1em" viewBox="0 0 40 40" xmlns="http://www.w3.org/2000/svg"><path fill-rule="evenodd" clip-rule="evenodd" d="M33.125 33.125C35 31.25 35 27.5 35 20s0-11.25-1.875-13.125S27.5 5 20 5 8.75 5 6.875 6.875 5 12.5 5 20s0 11.25 1.875 13.125S12.5 35 20 35s11.25 0 13.125-1.875zm-4.179-12.211a.51.51 0 00.188.453l2.31 1.833a.62.62 0 01.145.779l-2.399 4.21a.581.581 0 01-.732.267l-2.722-1.11a.513.513 0 00-.493.063 9.179 9.179 0 01-1.537.908.52.52 0 00-.301.397l-.416 2.942a.587.587 0 01-.588.51h-4.797a.587.587 0 01-.588-.51l-.416-2.942a.518.518 0 00-.3-.396 8.714 8.714 0 01-1.536-.904.516.516 0 00-.499-.066l-2.718 1.108a.599.599 0 01-.732-.268l-2.399-4.21a.62.62 0 01.144-.778l2.311-1.833a.51.51 0 00.188-.453 8.853 8.853 0 01-.052-.914c0-.306.021-.613.052-.913a.51.51 0 00-.188-.454L8.561 16.8a.606.606 0 01-.145-.779l2.4-4.21a.581.581 0 01.73-.267l2.723 1.11c.164.066.35.04.494-.063a9.172 9.172 0 011.536-.908.52.52 0 00.301-.397l.416-2.942a.587.587 0 01.588-.51H22.4c.3 0 .552.218.588.51l.416 2.942c.025.175.14.323.301.396a8.709 8.709 0 011.535.904.516.516 0 00.499.066l2.718-1.108a.599.599 0 01.732.268l2.399 4.21a.62.62 0 01-.144.778l-2.311 1.833a.51.51 0 00-.188.453c.031.298.052.599.052.914 0 .315-.02.616-.052.914zM15.805 20c0 2.348 1.883 4.258 4.198 4.258 2.314 0 4.198-1.91 4.198-4.258s-1.884-4.258-4.198-4.258c-2.315 0-4.198 1.91-4.198 4.258z" fill="currentColor"/></svg>
